!!!COM: Joplin, Scott
!!!CDT: 1868/11/24-1917/04/01
!!!OTL: Maple Leaf Rag
!!!ODT: 1899
!!!AGN: Rag
!!!OMD: Tempo di marcia
**kern	**kern	**dynam
*staff2	*staff1	*staff1/2
*Ipiano	*Ipiano	*Ipiano
*>[I,A,A1,A,A2,B,B1,B,B2,C,D,D1,D,D2,E,E1,E,E2]	*>[I,A,A1,A,A2,B,B1,B,B2,C,D,D1,D,D2,E,E1,E,E2]	*>[I,A,A1,A,A2,B,B1,B,B2,C,D,D1,D,D2,E,E1,E,E2]
*>norep[I,A,A2,B,B2,C,D,D2,E,E2]	*>norep[I,A,A2,B,B2,C,D,D2,E,E2]	*>norep[I,A,A2,B,B2,C,D,D2,E,E2]
*>I	*>I	*>I
*clefF4	*clefG2	*clefG2
*k[b-e-a-d-]	*k[b-e-a-d-]	*k[b-e-a-d-]
*kcancel	*kcancel	*
*M2/4	*M2/4	*M2/4
*MM100	*MM100	*MM100
8E- EE-	8r	.
=1!|:	=1!|:	=1!|:
*>A	*>A	*>A
8A-L AA-	16r	f
.	16a-LL<	.
8cJ A- E-	16ee- e-	.
.	16a-JJ	.
8cL A- E-	16ccLK<	.
.	8ee- e-	.
8AnJ AAn	.	.
.	16gJk	.
=2	=2	=2
8B-L BB-	16ee-LL< e-	.
.	16g	.
8d-J G E-	16b-	.
.	[16ee-JJ [e-	.
8d-L G E-	4ee-\] e-\]	.
8E-J EE-	.	.
=3	=3	=3
8A-L AA-	16r	.
.	16a-LL<	.
8cJ A- E-	16ee- e-	.
.	16a-JJ	.
8cL A- E-	16ccLK<	.
.	8ee- e-	.
8AnJ AAn	.	.
.	16gJk	.
=4	=4	=4
8B-L BB-	16ee-LL< e-	.
.	16g	.
8d-J G E-	16b-	.
.	[16ee-JJ [e-	.
8d-L G E-	8ee-]L< e-]	.
8E-J EE-	16r	.
.	16ee-Jk e-	.
!!LO:LB:g=original
=5	=5	=5
4F- FF-	16r	.
.	16a-LL	.
.	16cc-	.
.	16ff-JJ f-	.
8E-L EE-	16r	.
.	16ee-\ e-\	.
8E-J EE-	16r	.
.	16ee-\ e-\	.
=6	=6	=6
4F- FF-	16r	.
.	16a-LL	.
.	16cc-	.
.	16ff-JJ f-	.
8E- EE-	16r	.
.	16ee-\ e-\	.
8r	8r	.
=7	=7	=7
*^	*	*
!LO:TX:a:i:t=l.h.	!	!	!
16rD	8AAA-	2ryy	p
!LO:TX:a:i:t=r.h.	!	!	!
(<16AA-LL	.	.	.
16C-	8rCC	.	.
16A-JJ)	.	.	.
!LO:TX:a:i:t=l.h.	!	!	!
16rA	8AA-	.	.
!LO:TX:a:i:t=r.h.	!	!	!
(<16A-LL	.	.	.
16c-	8rGG	.	.
16a-JJ)	.	.	.
*v	*v	*	*
=8	=8	=8
8A-	16r	.
.	(16a-LL	.
8r	16cc-	.
.	16aa-JJ)	.
8a-	16r	.
.	(16aa-LL	.
8r	16ccc-	.
*clefG2	*	*
.	16aaa-JJ)	.
!!LO:LB:g=original
=9	=9	=9
8bnL a- f dn	8aaa-L aa-	mf
8bJ a- f d	8aaa-J aa-	<
8bL a- f d	8aaa-L aa-	.
8bJ a- f d	16aaa-L aa-	.
.	[16aaa-JJ [aa-	.
=10	=10	=10
8ccL a- e-	16aaa-]LL aa-]	[
.	16eee-	.
8ccJ a- e-	16fff	.
.	16cccJJ	.
8ccL a- e-	16eee-LK	.
.	8fff aa-	.
8ccJ a- e-	.	.
.	[16aa-Jk [ff-	.
=11	=11	=11
8cc-L a- f-	16aa-]LL ff-X]	.
.	16bb-	.
8cc-J a- f-	16ccc- ff-	.
.	16aa-JJ	.
8ccnL a- e-	16bb-LK	.
.	8cccn ee-	.
8ccJ a- e-	.	.
.	16aa-Jk	.
=12	=12	=12
8ccL a- e-	16cccLL ee-	.
.	16aa-J	.
8dd-J g e-	8bb-J ee-	.
8cc a-	8aa-L ee-	.
8r	16r	.
*clefF4	*	*
.	[16aa-Jk [a-	.
!!LO:LB:g=original
=13	=13	=13
8BnL A- F Dn	8aa-]L a-]	.
8BJ A- F D	8aa-J a-	.
8BL A- F D	8aa-L a-	.
8BJ A- F D	16aa-L a-	.
.	[16aa-JJ [a-	.
=14	=14	=14
8cL A- E-	16aa-]LL a-]	.
.	16ee-	.
8cJ A- E-	16ff a-	.
.	16ccJJ	.
8cL A- E-	16ee-LK	.
.	8ff a-	.
8cJ A- E-	.	.
.	[16a-Jk [f-	.
=15	=15	=15
8c-L A- F-	16a-]LL f-X]	.
.	16b-	.
8c-J A- F-	16cc- f-	.
.	16a-JJ	.
8cnL A- E-	16b-LK	.
.	8ccn e-	.
8cJ A- E-	.	.
.	16a-Jk	.
=16	=16	=16
*>A1	*>A1	*>A1
8cL A- E-	16ccLL e-	.
.	16a-J	.
8d-J G E-	8b-J e-	.
8cL A-	8a- e-	.
8E-J EE-	8r	.
=17:|!	=17:|!	=17:|!
*>A2	*>A2	*>A2
8cL A- E-	16ccLL e-	.
.	16a-J	.
8d-J G E-	8b-J e-	.
8cL A-	8a- e-	.
8AnJ AAn	8r	.
!!LO:LB:g=original
=18!|:	=18!|:	=18!|:
*>B	*>B	*>B
!	!	!LO:DY:t=%s stacc.
8B-L BB-	16r	f
.	16ggLL	.
8d-J G E-	16eee- ee-	.
.	16ggJJ	.
8E-L EE-	16bb-LK	.
.	8dddn ddn	.
8d-J G E-	.	.
.	16ggJk	.
=19	=19	=19
8B-L BB-	16ddd-XLL dd-X	.
.	16gg	.
8d-J G E-	16bb-	.
.	[16cccJJ [cc	.
8E-L EE-	16ccc]LL cc]	.
.	16ee-	.
8GJ GG	16bb- b-	.
.	16ee-JJ	.
=20	=20	=20
8A-L AA-	16r	.
.	16ccLL	.
8cJ A- E-	16aa- a-	.
.	16ccJJ	.
8E-L EE-	16ee-LK	.
.	8ff f	.
8cJ A- E-	.	.
.	16ccJk	.
=21	=21	=21
8A-L AA-	16aa-LL a-	.
.	16cc	.
8cJ A- E-	16ee-	.
.	[16ffJJ [f	.
8A-L AA-	16ff]LL f]	.
.	16ccJ	.
8AnJ AAn	8ffJ f	.
=22	=22	=22
8B-L BB-	16r	.
.	16ee-LL	.
8d-J G E-	16gg g	.
.	16b-JJ	.
8E-L EE-	16dd-LK	.
.	8ff f	.
8d-J G E-	.	.
.	16ee-Jk	.
!!LO:LB:g=original
=23	=23	=23
8B-L BB-	16ggLL g	.
.	16b-	.
8d-J G E-	16dd-	.
.	[16ffJJ [f	.
8B-L BB-	16ff]LL f]	.
.	16dd-J	.
8BnJ BBn	8ffJ f	.
=24	=24	=24
8cL C	16r	.
.	16ccLL	.
8cJ A- E-	16aa- a-	.
.	16ccJJ	.
8E-L EE-	16ee-LK	.
.	8ff f	.
8cJ A- E-	.	.
.	16ccJk	.
=25	=25	=25
8A-L AA-	16aa-LL a-	.
.	16cc	.
8cJ A- E-	16ee-	.
.	[16ffJJ [f	.
8A-L AA-	16ff]LL f]	.
.	16ccJ	.
8AnJ AAn	8ffJ f	.
=26	=26	=26
8B-L BB-	16r	.
.	16ggLL	.
8d-J G E-	16eee- ee-	.
.	16ggJJ	.
8E-L EE-	16bb-LK	.
.	8dddn ddn	.
8d-J G E-	.	.
.	16ggJk	.
=27	=27	=27
8B-L BB-	16ddd-XLL dd-X	.
.	16gg	.
8d-J G E-	16bb-	.
.	[16cccJJ [cc	.
8E-L EE-	16ccc]LL cc]	.
.	16ee-	.
8GJ GG	16bb- b-	.
.	16ee-JJ	.
=28	=28	=28
8A-L AA-	16r	.
.	16ccLL	.
8cJ A- E-	16aa- a-	.
.	16ccJJ	.
8E-L EE-	16ee-LK	.
.	8ff f	.
8cJ A- E-	.	.
.	16ccJk	.
!!LO:LB:g=original
=29	=29	=29
8A-L AA-	8aa-L a-	.
8A-J AA-	8aa-J a-	.
8GL< GG	8ggL g	.
8G-J GG-	8gg-J g-	.
=30	=30	=30
8FL FF	16r	.
.	16fLL	.
8FJ FF	16an	.
.	16ccJJ	.
8AnL AAn	16ffLL>	.
.	16cc	.
8AJ AA	16a	.
.	16fJJ	.
=31	=31	=31
8B-L BB-	16r	.
.	16fLL	.
8d-J B- F	16b-	.
.	16dd-JJ	.
8d-L B- F	8ffL> f	.
8d-J B- F	8dd-J b- f	.
=32	=32	=32
8B-L F BB-	8ccL a- f dn	.
8B-J F BB-	16r	.
.	16ccJk a- f d	.
8E-L EE-	16r	.
.	8b-L d-	.
8GJ GG	.	.
.	16e-Jk	.
=33	=33	=33
*>B1	*>B1	*>B1
8A-L AA-	8a-L c	.
8cJ A- E-	8ee-J e-	.
8cL A- E-	8ee-L e-	.
8AnJ AAn	8ee-J e-	.
=34:|!	=34:|!	=34:|!
*>B2	*>B2	*>B2
8A-L AA-	16r	.
.	16a-LL	.
8e-J c A-	16cc	.
.	16ee-JJ	.
8e-L c A-	8aa- a-	.
8E-J EE-	8r	.
!!LO:LB:g=original
=35||	=35||	=35||
*>C	*>C	*>C
8A-L AA-	16r	.
.	16a-LL<	f
8cJ A- E-	16ee- e-	.
.	16a-JJ	.
8cL A- E-	16ccLK<	.
.	8ee- e-	.
8AnJ AAn	.	.
.	16gJk	.
=36	=36	=36
8B-L BB-	16ee-LL< e-	.
.	16g	.
8d-J G E-	16b-	.
.	[16ee-JJ [e-	.
8d-L G E-	4ee-\] e-\]	.
8E-J EE-	.	.
=37	=37	=37
8A-L AA-	16r	.
.	16a-LL<	.
8cJ A- E-	16ee- e-	.
.	16a-JJ	.
8cL A- E-	16ccLK<	.
.	8ee- e-	.
8AnJ AAn	.	.
.	16gJk	.
=38	=38	=38
8B-L BB-	16ee-LL< e-	.
.	16g	.
8d-J G E-	16b-	.
.	[16ee-JJ [e-	.
8d-L G E-	8ee-]L< e-]	.
8E-J EE-	16r	.
.	16ee-Jk e-	.
=39	=39	=39
4F- FF-	16r	.
.	16a-LL	.
.	16cc-	.
.	16ff-JJ f-	.
8E-L EE-	16r	.
.	16ee-\ e-\	.
8E-J EE-	16r	.
.	16ee-\ e-\	.
!!LO:LB:g=original
=40	=40	=40
4F- FF-	16r	.
.	16a-LL	.
.	16cc-	.
.	16ff-JJ f-	.
8E- EE-	16r	.
.	16ee-\ e-\	.
8r	8r	.
=41	=41	=41
*^	*	*
!LO:TX:a:i:t=l.h.	!	!	!
16rD	8AAA-	2ryy	p
!LO:TX:a:i:t=r.h.	!	!	!
16AA-LL	.	.	.
16C-	8rCC	.	.
16A-JJ	.	.	.
!LO:TX:a:i:t=l.h.	!	!	!
16rA	8AA-	.	.
!LO:TX:a:i:t=r.h.	!	!	!
16A-LL	.	.	.
16c-	8rGG	.	.
16a-JJ	.	.	.
*v	*v	*	*
=42	=42	=42
8A-	16r	.
.	16a-LL	.
8r	16cc-	.
.	16aa-JJ	.
8a-	16r	.
.	16aa-LL	.
8r	16ccc-	.
*clefG2	*	*
.	16aaa-JJ	.
=43	=43	=43
8bnL a- f dn	8aaa-L aa-	mf
8bJ a- f d	8aaa-J aa-	<
8bL a- f d	8aaa-L aa-	.
8bJ a- f d	16aaa-L aa-	.
.	[16aaa-JJ [aa-	.
=44	=44	=44
8ccL a- e-	16aaa-]LL aa-]	.
.	16eee-	.
8ccJ a- e-	16fff aa-	[
.	16cccJJ	.
8ccL a- e-	16eee-LK	.
.	8fff aa-	.
8ccJ a- e-	.	.
.	[16aa-Jk [ff-	.
!!LO:LB:g=original
=45	=45	=45
8cc-L a- f-	16aa-]LL ff-X]	.
.	16bb-	.
8cc-J a- f-	16ccc- ff-	.
.	16aa-JJ	.
8ccnL a- e-	16bb-LK	.
.	8cccn ee-	.
8ccJ a- e-	.	.
.	16aa-Jk	.
=46	=46	=46
8ccL a- e-	16cccLL ee-	.
.	16aa-J	.
8dd-J g e-	8bb-J ee-	.
4cc a- e-	8aa-L ee-	.
*clefF4	*	*
.	16r	.
.	[16aa-Jk [a-	.
=47	=47	=47
8BnL A- F Dn	8aa-]L a-]	.
8BJ A- F D	8aa-J a-	.
8BL A- F D	8aa-L a-	.
8BJ A- F D	16aa-L a-	.
.	[16aa-JJ [a-	.
=48	=48	=48
8cL A- E-	16aa-]LL a-]	.
.	16ee-	.
8cJ A- E-	16ff a-	.
.	16ccJJ	.
8cL A- E-	16ee-LK	.
.	8ff a-	.
8cJ A- E-	.	.
.	[16a-Jk [f-	.
=49	=49	=49
8c-L A- F-	16a-]LL f-X]	.
.	16b-	.
8c-J A- F-	16cc- f-	.
.	16a-JJ	.
8cnL A- E-	16b-LK	.
.	8ccn e-	.
8cJ A- E-	.	.
.	16a-Jk	.
=50	=50	=50
8cL A- E-	16ccLL e-	.
.	16a-J	.
8d-J G E-	8b-J e-	.
8c A-	8a-L e-	.
8r	8aa-J a-	.
!!LO:LB:g=original
=51!|:	=51!|:	=51!|:
*>D	*>D	*>D
!!!OMD: Trio
*k[b-e-a-d-g-]	*k[b-e-a-d-g-]	*k[b-e-a-d-g-]
*M2/4	*M2/4	*M2/4
8E-L EE-	8.aa-L ee- cc a-	.
8g-J c A-	.	.
.	[16aa-Jk [ee- [>cc [b-	.
8G-L GG-	16aa-]LL ee-] cc] b-]	.
.	16ee-J cc	.
8g-J c A-	8b-J	.
=52	=52	=52
8FL FF	8.aa-L ee- cc a-	.
8g-J c A-	.	.
.	[16aa-Jk [ee- [>cc [b-	.
8E-L EE-	16aa-]LL ee-] cc] b-]	.
.	16ee- cc	.
8CJ CC	16b-	.
.	16ee-JJ cc	.
=53	=53	=53
8D-L DD-	16a-LL	.
.	16dd-	.
8fJ d- A-	16b-	.
.	16dd-JJ	.
8A-L AA-	16ffLL	.
.	16a-	.
8fJ d- A-	16dd-	.
.	16ffJJ	.
=54	=54	=54
8FL FF	16b-LL	.
.	16dd-	.
8fJ d- A-	16ff	.
.	[16a-JJ	.
8D-L DD-	16a-LL]	.
.	16ff	.
8DnJ DDn	16b-	.
.	16ffJJ	.
=55	=55	=55
8E-L EE-	8.aa-L ee- cc a-	.
8g-J c A-	.	.
.	[16aa-Jk [ee- [>cc [b-	.
8G-L GG-	16aa-]LL ee-] cc] b-]	.
.	16ee-J cc	.
8g-J c A-	8b-J	.
!!LO:LB:g=original
=56	=56	=56
8FL FF	8.aa-L ee- cc a-	.
8g-J c A-	.	.
.	[16aa-Jk [ee- [>cc [b-	.
8E-L EE-	16aa-]LL ee-] cc] b-]	.
.	16ee- cc	.
8CJ CC	16b-	.
.	16ee-JJ cc	.
=57	=57	=57
8D-L DD-	16a-LL	.
.	16dd-	.
8fJ d- A-	16b-	.
.	16dd-JJ	.
8A-L AA-	16ffLL	.
.	16a-	.
8fJ d- A-	16dd-	.
.	16ffJJ	.
=58	=58	=58
8FL FF	16b-LL	.
.	16dd-	.
8fJ d- A-	16ff	.
.	[16a-JJ	.
8D-L DD-	16a-]LL	.
.	16ff	.
8CJ CC	16an	.
.	16ffJJ ee-	.
=59	=59	=59
8BB-L BBB-	8.bb-L ff ddn b-	.
8a-J dn B-	.	.
.	[16bb-Jk [ff [>dd [cc	.
8DnL DDn	16bb-]LL ff] dd] cc]	.
.	16ffJ dd	.
8a-J d B-	8ccJ	.
=60	=60	=60
8FL FF	8.bb-L ff ddn b-	.
8a-J dn B-	.	.
.	[16bb-Jk [ff [>dd [cc	.
8B-L BB-	16bb-]LL ff] dd] cc]	.
.	16ff dd	.
8a-J d B-	16cc	.
.	16ffJJ dd	.
=61	=61	=61
8E-L EE-	16r	.
.	16ee-LL	.
8g-J e- B-	16bb- b-	.
.	16ee-JJ	.
8G-L GG-	16gg-LK	.
.	8ccc cc	.
8g-J e- B-	.	.
.	16ee-Jk	.
!!LO:LB:g=original
=62	=62	=62
8E-L EE-	16bb-LL b-	.
.	16ee-	.
8g-J e- B-	16gg-	.
.	[16cccJJ [cc	.
8G-L GG-	16ccc]LL cc]	.
.	16ee-J	.
8g-J e- B-	8bb-J b-	.
=63	=63	=63
16GnLK	8ddd-L ff- dd-	.
8B-	.	.
.	8ddd-J ff- dd-	.
16d-Jk	.	.
16f-LL	8cccL ff- cc	.
16d-	.	.
16B-	8bb-J ff- b-	.
16GnXJJ	.	.
=64	=64	=64
8A-L AA-	16ffnXLL a-	.
.	16dd-	.
8fnXJ d- A-	16ee-	.
.	[16gg-JJ [b-	.
8BB-L	16gg-]LL b-]	.
.	16b-J	.
8dnJ B- A-	8ffJ a-	.
=65	=65	=65
8d-XL B- E-	16ffLL gn	.
.	16dd-	.
8d-J B- E-	16ee-	.
.	[16ffJJ [g-	.
8cL A-	16ff]LL g-]	.
.	16cc	.
8cJ A-	16ee- g-	.
.	[16dd-JJ [f	.
=66	=66	=66
*>D1	*>D1	*>D1
8d-L D-	16dd-]LK f]	.
.	8aa- a-	.
8fJ d- A-	.	.
.	16ffJk	.
8fL d- A-	16aa-LL a-	.
.	16ff	.
8DnJ DDn	16aa- a-	.
.	16ffJJ	.
=67:|!	=67:|!	=67:|!
*>D2	*>D2	*>D2
8d-L D-	16dd-]LL f]	.
.	16dd-	.
8A-J AA-	16ff	.
.	16aa-JJ	.
8D-L< DD-	8ddd- dd-	.
8cJ C	8r	.
!!LO:LB:g=original
=68||	=68||	=68||
*k[b-e-a-d-]	*k[b-e-a-d-]	*k[b-e-a-d-]
*>E	*>E	*>E
8d-L D-	8aa-L a-	.
8fJ d- A-	8ffJ a-	.
8fL d- A-	8aa-L a-	.
8cJ C	8ffJ a-	.
=69	=69	=69
8d-L D-	8aa-L ff	.
8fJ d- A-	16bb-L ff	.
.	[16cccJJ [ff	.
8B-L BB-	16ccc]LL ff]	.
.	16bb-	.
8BnJ BBn	16aa-	.
.	16ffJJ	.
=70	=70	=70
8cL C	16ee-LK	.
.	8ff	.
8e-J c A-	.	.
.	[16ccJk [a-	.
8e-L c A-	4cc] a-]	.
8E-J EE-	.	.
=71	=71	=71
8A-L AA-	16r	.
.	16ee-LL	.
8cJ A- E-	16ff a-	.
.	16ccJJ	.
8E-L< EE-	16ee-LK	.
.	8ff a-	.
8AnJ AAn	.	.
.	16ccJk	.
=72	=72	=72
8B-L BB-	8ee-L g	.
8d-J G E-	16ffL	.
.	[16b-JJ [g	.
8E-L< EE-	4b-] g]	.
8AnJ AAn	.	.
!!LO:LB:g=original
=73	=73	=73
8B-L BB-	16r	.
.	16dd-LL	.
8d-J G E-	16ff g	.
.	16b-JJ	.
8E-L< EE-	16dd-LK	.
.	8ff g	.
8GJ GG	.	.
.	[16ccJk [a-	.
=74	=74	=74
8A-L AA-	16cc]LL a-]	.
.	16ee-	.
8cJ A- E-	16ff a-	.
.	16ccJJ	.
8E-L EE-	16ee-LK	.
.	8ff a-	.
8cJ A- E-	.	.
.	[16ccJk [a-	.
=75	=75	=75
8A-L AA-	16cc]LL a-]	.
.	16ee-	.
8cJ A- E-	16ff a-	.
.	16ccJJ	.
8B-L BB-	16ee-LK	.
.	8ff a-	.
8cJ C	.	.
.	16ee-Jk	.
=76	=76	=76
8d-L D-	8aa-L a-	.
8fJ d- A-	8ffJ a-	.
8fL d- A-	8aa-L a-	.
8cJ C	8ffJ a-	.
=77	=77	=77
8d-L D-	8aa-L ff	.
8fJ d- A-	16bb-L ff	.
.	[16cccJJ [ff	.
8B-L BB-	16ccc]LL ff]	.
.	16bb-	.
8BnJ BBn	16aa-	.
.	16ffJJ	.
=78	=78	=78
8cL C	8aa-L	.
8e-J c A-	8ffJ	.
8e-L c A-	16ee-LK	.
.	8aa-	.
8E-J EE-	.	.
.	[16ccJk [a-	.
!!LO:LB:g=original
=79	=79	=79
8A-L AA-	16cc]LL a-]	.
.	16ee-	.
8cJ A- E-	16ff a-	.
.	16ccJJ	.
8E-L EE-	16ee-LK	.
.	8ff a-	.
8cJ A- E-	.	.
.	[16a-Jk [f	.
=80	=80	=80
8D-L DD-	16a-]LL f]	.
.	16b-J	.
8D-J DD-	8a-J f	.
8BB-L BBB-	8a-L f-	.
8DnJ DDn	16b-L f-	.
.	[16a-JJ [e-	.
=81	=81	=81
8E-L EE-	16a-]LL e-]	.
.	16b-	.
8cJ A- E-	16cc e-	.
.	16a-JJ	.
8E-L EE-	16b-LK	.
.	8cc e-	.
8EnJ EEn	.	.
.	[16a-Jk [dn	.
=82	=82	=82
8FL FF	16a-]LL dnX]	.
.	16b-	.
8FJ FF	16cc d	.
.	16a-JJ	.
8GL GG	16r	.
.	8b-L d-	.
8GJ GG	.	.
.	16e-Jk	.
=83	=83	=83
*>E1	*>E1	*>E1
8A-L AA-	8a-L< c	.
8cJ A- E-	8ee-J e-	.
8B-L BB-	8ee-L< e-	.
8cJ C	8ee-J e-	.
=84:|!	=84:|!	=84:|!
*>E2	*>E2	*>E2
8A-L< AA-	8a-L< c	.
8E-J EE-	8ee-J dd- g	.
8AA- AAA-	8aa- ee- cc a-	.
==	==	==
*-	*-	*-
!!!RDF**kern: > = above
!!!RDF**kern: < = below
!!!URL-vhv: https://verovio.humdrum.org/?file=joplin/mapleleaf.krn
!!!URL-pdf-original: https://github.com/craigsapp/joplin/blob/master/reference-edition/mapleleaf.pdf
!!!PPR: John Stark & Son
!!!PDT: 1899
!!!YEC: Copyright 2004 by Craig Stuart Sapp
!!!YEN: United States of America
!!!ENC: Craig Stuart Sapp
!!!END: 2004/06/08
!!!EED: Craig Stuart Sapp
!!!EEV: 2021/06/29
!!!YEC: 2021 Craig Stuart Sapp
!!!URL: https://github.com/craigsapp/joplin
!!!YEM: Licence: (CC BY-NC-SA 4.0) https://creativecommons.org/licenses/by-nc-sa/4.0
!!!YER: 2021
